build/svg/cmd/sc_opentemplate.svg

<?xml version="1.0" encoding="UTF-8" standalone="no"?>
<svg
   xmlns:dc="http://purl.org/dc/elements/1.1/"
   xmlns:cc="http://creativecommons.org/ns#"
   xmlns:rdf="http://www.w3.org/1999/02/22-rdf-syntax-ns#"
   xmlns:svg="http://www.w3.org/2000/svg"
   xmlns="http://www.w3.org/2000/svg"
   xmlns:sodipodi="http://sodipodi.sourceforge.net/DTD/sodipodi-0.dtd"
   xmlns:inkscape="http://www.inkscape.org/namespaces/inkscape"
   viewBox="0 0 16 16"
   version="1.1"
   id="svg4"
   sodipodi:docname="sc_opentemplate.svg"
   inkscape:export-filename="/home/jupiter007/Libreoffice yaru theme fullcolor/build/cmd/sc_opentemplate.png"
   inkscape:export-xdpi="96"
   inkscape:export-ydpi="96"
   inkscape:version="0.92.5 (2060ec1f9f, 2020-04-08)">
  <metadata
     id="metadata10">
    <rdf:RDF>
      <cc:Work
         rdf:about="">
        <dc:format>image/svg+xml</dc:format>
        <dc:type
           rdf:resource="http://purl.org/dc/dcmitype/StillImage" />
      </cc:Work>
    </rdf:RDF>
  </metadata>
  <defs
     id="defs8" />
  <sodipodi:namedview
     pagecolor="#ffffff"
     bordercolor="#666666"
     borderopacity="1"
     objecttolerance="10"
     gridtolerance="10"
     guidetolerance="10"
     inkscape:pageopacity="0"
     inkscape:pageshadow="2"
     inkscape:window-width="1920"
     inkscape:window-height="1011"
     id="namedview6"
     showgrid="false"
     inkscape:zoom="14.75"
     inkscape:cx="0.44067797"
     inkscape:cy="8"
     inkscape:window-x="0"
     inkscape:window-y="32"
     inkscape:window-maximized="1"
     inkscape:current-layer="svg4" />
  <path
     sodipodi:nodetypes="sccccccccccsscccccsscs"
     inkscape:connector-curvature="0"
     id="path820"
     d="M 1.9987503,5.0000001 C 1.9988093,4.4080001 2.0607093,3.994 2.1586437,3.734 2.2565787,3.474 2.3615087,3.3630001 2.5453862,3.2620001 2.9111423,3.059 4.7278753,3 6.0020817,3 h 0.5336442 l 2.1149235,2 0.4602005,0.254 h 0.7030239 l 1.5329772,1e-7 c 1.263158,0.015 1.739507,0.06 2.107262,0.2619999 0.182878,0.1 0.287808,0.212 0.385743,0.4720001 C 13.937786,6.248 14.001827,6.662 14.001748,7.254 L 14.001249,11 c -7.9e-5,0.592 -0.06296,1.006 -0.159893,1.266 -0.09794,0.26 -0.202865,0.371 -0.386742,0.472 C 13.088857,12.94 12.262408,12.985 11.003249,13 H 5.9955867 C 4.7364262,12.985 2.9106433,12.94 2.5448872,12.738 2.3610097,12.638 2.2550804,12.526 2.158145,12.266 2.06121,12.006 1.9982516,11.592 1.9982516,11 v -1 z"
     style="color:#000000;font-weight:400;line-height:normal;font-family:sans-serif;font-variant-ligatures:none;font-variant-position:normal;font-variant-caps:normal;font-variant-numeric:normal;font-variant-alternates:normal;font-feature-settings:normal;text-indent:0;text-align:start;text-decoration:none;text-decoration-line:none;text-decoration-style:solid;text-decoration-color:#000000;text-transform:none;white-space:normal;shape-padding:0;overflow:visible;opacity:0.6;isolation:auto;mix-blend-mode:normal;fill:#000000;fill-opacity:1;stroke:#000000;stroke-width:2;stroke-linejoin:round;stroke-miterlimit:4;stroke-dasharray:none;stroke-opacity:1;marker:none" />
  <path
     style="color:#000000;font-weight:400;line-height:normal;font-family:sans-serif;font-variant-ligatures:none;font-variant-position:normal;font-variant-caps:normal;font-variant-numeric:normal;font-variant-alternates:normal;font-feature-settings:normal;text-indent:0;text-align:start;text-decoration:none;text-decoration-line:none;text-decoration-style:solid;text-decoration-color:#000000;text-transform:none;white-space:normal;shape-padding:0;overflow:visible;isolation:auto;mix-blend-mode:normal;fill:#b3b3b3;fill-opacity:1;stroke-width:0.99966687;stroke-linejoin:round;marker:none"
     d="M 1.9987503,5.0000001 C 1.9988093,4.4080001 2.0607093,3.994 2.1586437,3.734 2.2565787,3.474 2.3615087,3.3630001 2.5453862,3.2620001 2.9111423,3.059 4.7278753,3 6.0020817,3 h 0.5336442 l 2.1149235,2 0.4602005,0.254 h 0.7030239 l 1.5329772,1e-7 c 1.263158,0.015 1.739507,0.06 2.107262,0.2619999 0.182878,0.1 0.287808,0.212 0.385743,0.4720001 C 13.937786,6.248 14.001827,6.662 14.001748,7.254 L 14.001249,11 c -7.9e-5,0.592 -0.06296,1.006 -0.159893,1.266 -0.09794,0.26 -0.202865,0.371 -0.386742,0.472 C 13.088857,12.94 12.262408,12.985 11.003249,13 H 5.9955867 C 4.7364262,12.985 2.9106433,12.94 2.5448872,12.738 2.3610097,12.638 2.2550804,12.526 2.158145,12.266 2.06121,12.006 1.9982516,11.592 1.9982516,11 v -1 z"
     id="path2"
     inkscape:connector-curvature="0"
     sodipodi:nodetypes="sccccccccccsscccccsscs" />
  <path
     inkscape:connector-curvature="0"
     id="path829"
     d="M 3.0000001,15 15,9 v 6 z"
     style="opacity:0.6;fill:#000000;fill-opacity:1;stroke:#000000;stroke-width:2;stroke-linecap:butt;stroke-linejoin:round;stroke-miterlimit:4;stroke-dasharray:none;stroke-opacity:1"
     sodipodi:nodetypes="cccc" />
  <path
     style="opacity:1;fill:#ffffff;fill-opacity:1;stroke:none;stroke-width:1px;stroke-linecap:butt;stroke-linejoin:miter;stroke-opacity:1"
     d="M 3.0000001,15 15,9 v 6 z"
     id="path827"
     inkscape:connector-curvature="0"
     sodipodi:nodetypes="cccc" />
</svg>

<svg xmlns="http://www.w3.org/2000/svg" viewBox="0 0 16 16"><path d="M1.999 5c0-.592.062-1.006.16-1.266s.203-.371.386-.472C2.911 3.059 4.728 3 6.002 3h.534L8.65 5l.46.254H11.347c1.263.015 1.74.06 2.107.262.183.1.288.212.386.472.098.26.162.674.162 1.266V11c0 .592-.064 1.006-.16 1.266-.099.26-.204.371-.387.472-.366.202-1.193.247-2.452.262H5.996c-1.26-.015-3.085-.06-3.451-.262-.184-.1-.29-.212-.387-.472-.097-.26-.16-.674-.16-1.266v-1z" style="line-height:normal;font-variant-ligatures:none;font-variant-position:normal;font-variant-caps:normal;font-variant-numeric:normal;font-variant-alternates:normal;font-feature-settings:normal;text-indent:0;text-align:start;text-decoration-line:none;text-decoration-style:solid;text-decoration-color:#000;text-transform:none;white-space:normal;shape-padding:0;isolation:auto;mix-blend-mode:normal;marker:none" color="#000" font-weight="400" font-family="sans-serif" overflow="visible" opacity=".6" stroke="#000" stroke-width="2" stroke-linejoin="round"/><path style="line-height:normal;font-variant-ligatures:none;font-variant-position:normal;font-variant-caps:normal;font-variant-numeric:normal;font-variant-alternates:normal;font-feature-settings:normal;text-indent:0;text-align:start;text-decoration-line:none;text-decoration-style:solid;text-decoration-color:#000;text-transform:none;white-space:normal;shape-padding:0;isolation:auto;mix-blend-mode:normal;marker:none" d="M1.999 5c0-.592.062-1.006.16-1.266s.203-.371.386-.472C2.911 3.059 4.728 3 6.002 3h.534L8.65 5l.46.254H11.347c1.263.015 1.74.06 2.107.262.183.1.288.212.386.472.098.26.162.674.162 1.266V11c0 .592-.064 1.006-.16 1.266-.099.26-.204.371-.387.472-.366.202-1.193.247-2.452.262H5.996c-1.26-.015-3.085-.06-3.451-.262-.184-.1-.29-.212-.387-.472-.097-.26-.16-.674-.16-1.266v-1z" color="#000" font-weight="400" font-family="sans-serif" overflow="visible" fill="#b3b3b3"/><path d="M3 15l12-6v6z" opacity=".6" stroke="#000" stroke-width="2" stroke-linejoin="round"/><path d="M3 15l12-6v6z" fill="#fff"/></svg>
